assets/icons/24px/stroke/rectangle-small-with-blocks-24px.svg

<svg width="24" height="24" viewBox="0 0 24 24" fill="none" xmlns="http://www.w3.org/2000/svg">
<path fill-rule="evenodd" clip-rule="evenodd" d="M11.968 8H12.032C12.4706 7.99999 12.8491 7.99998 13.1624 8.02135C13.4922 8.04386 13.8221 8.09336 14.1481 8.22836C14.8831 8.53284 15.4672 9.11687 15.7716 9.85195C15.9066 10.1779 15.9561 10.5078 15.9787 10.8376C16 11.1509 16 11.5294 16 11.968V12.032C16 12.4706 16 12.8491 15.9787 13.1624C15.9561 13.4922 15.9066 13.8221 15.7716 14.1481C15.4672 14.8831 14.8831 15.4672 14.1481 15.7716C13.8221 15.9066 13.4922 15.9561 13.1624 15.9787C12.8491 16 12.4706 16 12.032 16H11.968C11.5294 16 11.1509 16 10.8376 15.9787C10.5078 15.9561 10.1779 15.9066 9.85195 15.7716C9.11687 15.4672 8.53284 14.8831 8.22836 14.1481C8.09336 13.8221 8.04386 13.4922 8.02135 13.1624C7.99998 12.8491 7.99999 12.4706 8 12.032V11.968C7.99999 11.5294 7.99998 11.1509 8.02135 10.8376C8.04386 10.5078 8.09336 10.1779 8.22836 9.85195C8.53284 9.11687 9.11687 8.53284 9.85195 8.22836C10.1779 8.09336 10.5078 8.04386 10.8376 8.02135C11.1509 7.99998 11.5294 7.99999 11.968 8ZM10.9738 10.0167C10.7458 10.0323 10.6589 10.0589 10.6173 10.0761C10.3723 10.1776 10.1776 10.3723 10.0761 10.6173C10.0589 10.6589 10.0323 10.7458 10.0167 10.9738C10.0005 11.2107 10 11.5204 10 12C10 12.4796 10.0005 12.7893 10.0167 13.0262C10.0323 13.2542 10.0589 13.3411 10.0761 13.3827C10.1776 13.6277 10.3723 13.8224 10.6173 13.9239C10.6589 13.9411 10.7458 13.9677 10.9738 13.9833C11.2107 13.9995 11.5204 14 12 14C12.4796 14 12.7893 13.9995 13.0262 13.9833C13.2542 13.9677 13.3411 13.9411 13.3827 13.9239C13.6277 13.8224 13.8224 13.6277 13.9239 13.3827C13.9411 13.3411 13.9677 13.2542 13.9833 13.0262C13.9995 12.7893 14 12.4796 14 12C14 11.5204 13.9995 11.2107 13.9833 10.9738C13.9677 10.7458 13.9411 10.6589 13.9239 10.6173C13.8224 10.3723 13.6277 10.1776 13.3827 10.0761C13.3411 10.0589 13.2542 10.0323 13.0262 10.0167C12.7893 10.0005 12.4796 10 12 10C11.5204 10 11.2107 10.0005 10.9738 10.0167Z" fill="white"/>
<path fill-rule="evenodd" clip-rule="evenodd" d="M18.5 4C17.6716 4 17 4.67157 17 5.5C17 6.32843 17.6716 7 18.5 7C19.3284 7 20 6.32843 20 5.5C20 4.67157 19.3284 4 18.5 4ZM15 5.5C15 3.567 16.567 2 18.5 2C20.433 2 22 3.567 22 5.5C22 7.433 20.433 9 18.5 9C16.567 9 15 7.433 15 5.5Z" fill="white"/>
<path fill-rule="evenodd" clip-rule="evenodd" d="M18.5 17C17.6716 17 17 17.6716 17 18.5C17 19.3284 17.6716 20 18.5 20C19.3284 20 20 19.3284 20 18.5C20 17.6716 19.3284 17 18.5 17ZM15 18.5C15 16.567 16.567 15 18.5 15C20.433 15 22 16.567 22 18.5C22 20.433 20.433 22 18.5 22C16.567 22 15 20.433 15 18.5Z" fill="white"/>
<path fill-rule="evenodd" clip-rule="evenodd" d="M5.5 17C4.67157 17 4 17.6716 4 18.5C4 19.3284 4.67157 20 5.5 20C6.32843 20 7 19.3284 7 18.5C7 17.6716 6.32843 17 5.5 17ZM2 18.5C2 16.567 3.567 15 5.5 15C7.433 15 9 16.567 9 18.5C9 20.433 7.433 22 5.5 22C3.567 22 2 20.433 2 18.5Z" fill="white"/>
<path fill-rule="evenodd" clip-rule="evenodd" d="M5.5 4C4.67157 4 4 4.67157 4 5.5C4 6.32843 4.67157 7 5.5 7C6.32843 7 7 6.32843 7 5.5C7 4.67157 6.32843 4 5.5 4ZM2 5.5C2 3.567 3.567 2 5.5 2C7.433 2 9 3.567 9 5.5C9 7.433 7.433 9 5.5 9C3.567 9 2 7.433 2 5.5Z" fill="white"/>
<path fill-rule="evenodd" clip-rule="evenodd" d="M7.50003 6.08569L10.9142 9.49991L9.50003 10.9141L6.08582 7.49991L7.50003 6.08569ZM17.9142 7.49991L15 10.4141L13.5858 8.99991L16.5 6.08569L17.9142 7.49991ZM10.4142 14.9999L7.50003 17.9141L6.08582 16.4999L9.00003 13.5857L10.4142 14.9999ZM15 13.5857L17.9142 16.4999L16.5 17.9141L13.5858 14.9999L15 13.5857Z" fill="white"/>
</svg>

<svg width="24" height="24" fill="none" xmlns="http://www.w3.org/2000/svg"><path fill-rule="evenodd" clip-rule="evenodd" d="M11.968 8h.064c.439 0 .817 0 1.13.021.33.023.66.072.986.207a3 3 0 0 1 1.624 1.624c.135.326.184.656.207.986.021.313.021.691.021 1.13v.064c0 .439 0 .817-.021 1.13-.023.33-.072.66-.207.986a3 3 0 0 1-1.624 1.624 3.073 3.073 0 0 1-.986.207c-.313.021-.691.021-1.13.021h-.064c-.439 0-.817 0-1.13-.021a3.072 3.072 0 0 1-.986-.207 3 3 0 0 1-1.624-1.624 3.07 3.07 0 0 1-.207-.986C8 12.85 8 12.471 8 12.032v-.064c0-.439 0-.817.021-1.13.023-.33.072-.66.207-.986a3 3 0 0 1 1.624-1.624 3.07 3.07 0 0 1 .986-.207C11.15 8 11.529 8 11.968 8zm-.994 2.017c-.228.015-.315.042-.357.06a1 1 0 0 0-.54.54c-.018.042-.045.129-.06.357C10 11.21 10 11.52 10 12s0 .79.017 1.026c.015.228.042.315.06.357a1 1 0 0 0 .54.54c.042.018.129.045.357.06C11.21 14 11.52 14 12 14s.79 0 1.026-.017c.228-.015.315-.042.357-.06a1 1 0 0 0 .54-.54c.018-.042.045-.129.06-.357C14 12.79 14 12.48 14 12s0-.79-.017-1.026c-.015-.228-.042-.315-.06-.357a1 1 0 0 0-.54-.54c-.042-.018-.129-.045-.357-.06A16.885 16.885 0 0 0 12 10c-.48 0-.79 0-1.026.017zM18.5 4a1.5 1.5 0 1 0 0 3 1.5 1.5 0 0 0 0-3zM15 5.5a3.5 3.5 0 1 1 7 0 3.5 3.5 0 0 1-7 0zM18.5 17a1.5 1.5 0 1 0 0 3 1.5 1.5 0 0 0 0-3zM15 18.5a3.5 3.5 0 1 1 7 0 3.5 3.5 0 0 1-7 0zM5.5 17a1.5 1.5 0 1 0 0 3 1.5 1.5 0 0 0 0-3zM2 18.5a3.5 3.5 0 1 1 7 0 3.5 3.5 0 0 1-7 0zM5.5 4a1.5 1.5 0 1 0 0 3 1.5 1.5 0 0 0 0-3zM2 5.5a3.5 3.5 0 1 1 7 0 3.5 3.5 0 0 1-7 0z" fill="#fff"/><path fill-rule="evenodd" clip-rule="evenodd" d="M7.5 6.086L10.914 9.5 9.5 10.914 6.086 7.5 7.5 6.086zM17.914 7.5L15 10.414 13.586 9 16.5 6.086 17.914 7.5zm-7.5 7.5L7.5 17.914 6.086 16.5 9 13.586 10.414 15zM15 13.586l2.914 2.914-1.414 1.414L13.586 15 15 13.586z" fill="#fff"/></svg>
